assets/img/icons/arrow-circle-right.svg

<svg width="36" height="36" viewBox="0 0 36 36" fill="none" xmlns="http://www.w3.org/2000/svg">
<path d="M21.3692 18.7693L17.45 22.6885C17.3038 22.8346 17.2372 23.0051 17.25 23.2C17.2628 23.3949 17.3423 23.5654 17.4885 23.7115C17.6346 23.8577 17.8137 23.9307 18.0257 23.9307C18.2376 23.9307 18.4124 23.8577 18.55 23.7115L23.2885 18.9731C23.5628 18.6987 23.7 18.3744 23.7 18C23.7 17.6256 23.5628 17.3013 23.2885 17.0269L18.5115 12.25C18.3654 12.1038 18.1949 12.0307 18 12.0307C17.8051 12.0307 17.6346 12.1038 17.4885 12.25C17.3423 12.3962 17.2693 12.5752 17.2693 12.7872C17.2693 12.9992 17.3423 13.174 17.4885 13.3116L21.3692 17.2307H12C11.7731 17.2307 11.5881 17.3024 11.4452 17.4456C11.3022 17.5888 11.2308 17.774 11.2308 18.0014C11.2308 18.2287 11.3022 18.4135 11.4452 18.5557C11.5881 18.6981 11.7731 18.7693 12 18.7693H21.3692ZM18.0067 36C15.5253 36 13.1954 35.5277 11.017 34.583C8.83857 33.6384 6.93055 32.348 5.29295 30.712C3.65538 29.0759 2.36383 27.1697 1.4183 24.9933C0.472767 22.8169 0 20.4881 0 18.0067C0 15.5176 0.472317 13.1774 1.41695 10.9862C2.36162 8.79497 3.65198 6.88888 5.28805 5.26795C6.92412 3.64705 8.83033 2.36383 11.0067 1.4183C13.1831 0.472768 15.5119 0 17.9933 0C20.4824 0 22.8226 0.472316 25.0138 1.41695C27.205 2.36162 29.1111 3.64365 30.732 5.26305C32.353 6.88245 33.6362 8.78673 34.5817 10.9759C35.5272 13.1651 36 15.5042 36 17.9933C36 20.4747 35.5277 22.8046 34.583 24.983C33.6384 27.1614 32.3564 29.0695 30.737 30.7071C29.1176 32.3446 27.2133 33.6362 25.0241 34.5817C22.8349 35.5272 20.4958 36 18.0067 36ZM18 34.4616C22.5795 34.4616 26.468 32.8609 29.6654 29.6596C32.8628 26.4583 34.4616 22.5718 34.4616 18C34.4616 13.4205 32.8628 9.53203 29.6654 6.3346C26.468 3.13717 22.5795 1.53845 18 1.53845C13.4282 1.53845 9.54167 3.13717 6.3404 6.3346C3.1391 9.53203 1.53845 13.4205 1.53845 18C1.53845 22.5718 3.1391 26.4583 6.3404 29.6596C9.54167 32.8609 13.4282 34.4616 18 34.4616Z" fill="white"/>
</svg>

<svg width="36" height="36" fill="none" xmlns="http://www.w3.org/2000/svg"><path d="M21.37 18.77l-3.92 3.919a.637.637 0 00-.2.511.777.777 0 00.238.512.73.73 0 00.538.219.689.689 0 00.524-.22l4.738-4.738A1.33 1.33 0 0023.7 18a1.33 1.33 0 00-.412-.973l-4.776-4.777a.7.7 0 00-.512-.22.7.7 0 00-.512.22.73.73 0 00-.219.537c0 .212.073.387.22.525l3.88 3.919H12a.75.75 0 00-.555.215.752.752 0 00-.214.555.75.75 0 00.214.555.752.752 0 00.555.213h9.37zM18.006 36c-2.482 0-4.812-.472-6.99-1.417a18.34 18.34 0 01-5.724-3.871 18.32 18.32 0 01-3.875-5.719C.473 22.817 0 20.488 0 18.007c0-2.49.472-4.83 1.417-7.02.945-2.192 2.235-4.098 3.871-5.72a18.538 18.538 0 015.719-3.849C13.183.473 15.512 0 17.993 0c2.49 0 4.83.472 7.02 1.417 2.192.945 4.098 2.227 5.719 3.846 1.621 1.62 2.904 3.524 3.85 5.713.945 2.19 1.418 4.528 1.418 7.017 0 2.482-.472 4.812-1.417 6.99a18.557 18.557 0 01-3.846 5.724c-1.62 1.638-3.524 2.93-5.713 3.875-2.19.945-4.528 1.418-7.017 1.418zM18 34.462c4.58 0 8.468-1.601 11.665-4.802 3.198-3.202 4.797-7.088 4.797-11.66 0-4.58-1.6-8.468-4.797-11.665C26.468 3.137 22.58 1.538 18 1.538c-4.572 0-8.458 1.6-11.66 4.797C3.14 9.532 1.538 13.42 1.538 18c0 4.572 1.601 8.458 4.802 11.66 3.202 3.2 7.088 4.802 11.66 4.802z" fill="#fff"/></svg>
